docs/svgs/bulb-classic.svg

<svg viewBox="0 0 24 24" height="24px" width="24px" fill="#44739e" xmlns="http://www.w3.org/2000/svg"><title>hue:bulb-classic</title><desc>Source: https://github.com/arallsopp/hass-hue-icons</desc><path d="M 7.179688 9.90625 C 8.59375 10.355469 10.660156 10.5 12 10.5 C 13.339844 10.5 15.40625 10.355469 16.820312 9.90625 C 16.246094 11.417969 15.246094 12.089844 15.007812 13.5 C 14.902344 14.113281 14.816406 14.972656 14.875 15.601562 C 14.910156 16 14.605469 16.351562 14.207031 16.390625 C 13.558594 16.457031 12.824219 16.5 12 16.5 C 11.175781 16.5 10.441406 16.457031 9.792969 16.390625 C 9.390625 16.351562 9.089844 16 9.125 15.601562 C 9.183594 14.972656 9.097656 14.113281 8.992188 13.5 C 8.753906 12.089844 7.757812 11.417969 7.179688 9.90625 Z M 9.75 17.148438 C 10.53125 17.222656 11.390625 17.25 12 17.25 C 12.609375 17.25 13.46875 17.222656 14.25 17.148438 L 13.875 19.476562 C 13.855469 19.640625 13.773438 19.792969 13.648438 19.90625 L 13.300781 20.226562 C 13.277344 20.246094 13.253906 20.269531 13.234375 20.292969 L 12.863281 20.730469 C 12.722656 20.902344 12.503906 21 12.273438 21 L 11.726562 21 C 11.496094 21 11.277344 20.902344 11.136719 20.730469 L 10.765625 20.292969 C 10.746094 20.269531 10.722656 20.246094 10.699219 20.226562 L 10.351562 19.90625 C 10.226562 19.792969 10.144531 19.640625 10.125 19.476562 Z M 12 3 C 14.890625 3 17.25 5.5 17.25 7.875 C 17.25 8.089844 17.207031 8.28125 17.1875 8.480469 C 17.164062 8.671875 17.128906 8.832031 17.089844 9.007812 C 16.273438 9.355469 14.539062 9.75 12 9.75 C 9.460938 9.75 7.726562 9.355469 6.910156 9.007812 C 6.871094 8.832031 6.835938 8.671875 6.8125 8.480469 C 6.792969 8.28125 6.75 8.089844 6.75 7.875 C 6.75 5.5 9.109375 3 12 3 Z M 12 3 "/></svg>

<svg viewBox="0 0 24 24" height="24px" width="24px" fill="#44739e" xmlns="http://www.w3.org/2000/svg"><title>hue:bulb-classic</title><desc>Source: https://github.com/arallsopp/hass-hue-icons</desc><path d="M7.18,9.91c1.41,0.45,3.48,0.59,4.82,0.59s3.41-0.14,4.82-0.59c-0.57,1.51-1.57,2.18-1.81,3.59 c-0.11,0.61-0.19,1.47-0.13,2.1c0.04,0.4-0.27,0.75-0.67,0.79c-0.65,0.07-1.38,0.11-2.21,0.11s-1.56-0.04-2.21-0.11 c-0.4-0.04-0.7-0.39-0.67-0.79c0.06-0.63-0.03-1.49-0.13-2.1C8.75,12.09,7.76,11.42,7.18,9.91z M9.75,17.15 c0.78,0.07,1.64,0.1,2.25,0.1s1.47-0.03,2.25-0.1l-0.38,2.33c-0.02,0.16-0.1,0.32-0.23,0.43l-0.35,0.32 c-0.02,0.02-0.05,0.04-0.07,0.07l-0.37,0.44C12.72,20.9,12.5,21,12.27,21h-0.55c-0.23,0-0.45-0.1-0.59-0.27l-0.37-0.44 c-0.02-0.02-0.04-0.05-0.07-0.07l-0.35-0.32c-0.12-0.11-0.21-0.27-0.23-0.43L9.75,17.15z M12,3c2.89,0,5.25,2.5,5.25,4.88 c0,0.21-0.04,0.41-0.06,0.61c-0.02,0.19-0.06,0.35-0.1,0.53C16.27,9.36,14.54,9.75,12,9.75S7.73,9.36,6.91,9.01 c-0.04-0.18-0.07-0.34-0.1-0.53c-0.02-0.2-0.06-0.39-0.06-0.61C6.75,5.5,9.11,3,12,3z"/></svg>
